X: 1
T: Miss Edwards
M: 4/4
L: 1/8
R: reel
K: Dmaj
|: dcde d2 A2 | dcde f2 ed | edef e2 B2 | edef g2 fe |
f2 fe defd | B2 e2 c2 Bc | dcBA BAGF | E2 EA GFED |
F2 d2 cBcd | e2 c2 ABAG | FGFE D2 D2 | D4 z4 :|
|: a2 fe d2 d2 | cdec A2 A2 | B/A/B/c/ dB G2 G2 | c/B/c/d/ ec A2 A2 |
afge dfaf | gdBd cdec | dBGB Addd | cefe d/c/d/c/ BA |
Aaaa fedc |Bggf edcB | Adce dfeg | f/g/a Ac d4 :|
